src/actions/symbolic/document-save-symbolic.svg

<svg width="16" height="16" version="1.1" xmlns="http://www.w3.org/2000/svg">
 <defs>
  <style id="current-color-scheme" type="text/css">
   .ColorScheme-Text { color:#2e3440; } .ColorScheme-Highlight { color:#88c0d0; } .ColorScheme-NeutralText { color:#d08770; } .ColorScheme-PositiveText { color:#a3be8c; } .ColorScheme-NegativeText { color:#bf616a; }
  </style>
 </defs>
 <path class="ColorScheme-Text" d="m3 1c-1.108 0-2 0.892-2 2v10c0 1.108 0.892 2 2 2h9c1.108 0 2-0.892 2-2v-8h-1v8c0 0.554-0.446 1-1 1h-9c-0.554 0-1-0.446-1-1v-10c0-0.554 0.446-1 1-1h7v-1z" fill="currentColor"/>
 <path class="ColorScheme-Text" d="m7 4v6.0859l-1.7988-1.7988-0.70703 0.70703 3.0059 3.0059 3.0059-3.0059-0.70703-0.70703-1.7988 1.7988v-6.0859h-1z" fill="currentColor"/>
 <path class="ColorScheme-Text" d="m14 6-1-1h-2c-0.554 0-1-0.446-1-1v-2l-1-1v3c0 1.108 0.892 2 2 2z" fill="currentColor"/>
 <path class="ColorScheme-Text" d="m10 1-0.70703 0.70703 4.707 4.707v-1.4141l-4-4z" fill="currentColor"/>
</svg>

<svg xmlns="http://www.w3.org/2000/svg" width="16" height="16"><defs><style id="current-color-scheme" type="text/css">.ColorScheme-Text{color:#2e3440}</style></defs><path fill="currentColor" d="M3 1c-1.108 0-2 .892-2 2v10c0 1.108.892 2 2 2h9c1.108 0 2-.892 2-2V5h-1v8c0 .554-.446 1-1 1H3c-.554 0-1-.446-1-1V3c0-.554.446-1 1-1h7V1z" class="ColorScheme-Text"/><path fill="currentColor" d="M7 4v6.086L5.201 8.287l-.707.707L7.5 12l3.006-3.006-.707-.707L8 10.086V4zM14 6l-1-1h-2c-.554 0-1-.446-1-1V2L9 1v3c0 1.108.892 2 2 2z" class="ColorScheme-Text"/><path fill="currentColor" d="m10 1-.707.707L14 6.414V5z" class="ColorScheme-Text"/></svg>
